X:3399
L:1/8
M:9/8
K:G
 dBG G2 c | BAB | dBG G2 c g2 e | dBG G2 B dcB | ecA A2 B cBA :| def g2 g fef | g2 B BcB dcB | 
 def gag efg | a2 A A2 B cBA | def g2 g fef | g2 B BcB d2 g | bag agf efg | a2 A A2 f gfe ||

